X: 1
T: Laeg Di Maw
C: R-58
M: C|
Z: Transcribed to abc by Mary Lou Knack
R: polka
K: G
"G"B2B2 d3B| G2G2 B4| "D"c2cB A2BA| "G"G2B2 d4|
"G"B2B2 d3B| G2G2 B4| "D"c2cB A2BA| "G"G2B2 G4:| \K: D\
|:\
"D"ABAF ABAF| A2df a2a2| "A"g2gf e2e2| "D"fgfe d2d2|
"D"ABAF ABAF| A2df a2a2| "A"g2gf e2fe| "D"d2f2 d4:|
%%text 9/1/98.  From Spaelimenninir.  Also known as "Danish Polka".
